icons/figma/figma-original.svg

<svg xmlns="http://www.w3.org/2000/svg" viewBox="0 0 128 128"><path fill="#0acf83" d="M45.5 129c11.9 0 21.5-9.6 21.5-21.5V86H45.5C33.6 86 24 95.6 24 107.5S33.6 129 45.5 129zm0 0"/><path fill="#a259ff" d="M24 64.5C24 52.6 33.6 43 45.5 43H67v43H45.5C33.6 86 24 76.4 24 64.5zm0 0"/><path fill="#f24e1e" d="M24 21.5C24 9.6 33.6 0 45.5 0H67v43H45.5C33.6 43 24 33.4 24 21.5zm0 0"/><path fill="#ff7262" d="M67 0h21.5C100.4 0 110 9.6 110 21.5S100.4 43 88.5 43H67zm0 0"/><path fill="#1abcfe" d="M110 64.5c0 11.9-9.6 21.5-21.5 21.5S67 76.4 67 64.5 76.6 43 88.5 43 110 52.6 110 64.5zm0 0"/></svg>

<?xml version="1.0" encoding="UTF-8"?>
<svg xmlns="http://www.w3.org/2000/svg" xmlns:xlink="http://www.w3.org/1999/xlink" width="128px" height="128px" viewBox="0 0 128 128" version="1.1">
<g>
<path fill="#0acf83" d="M 45.5 129 C 57.4 129 67 119.4 67 107.5 L 67 86 L 45.5 86 C 33.6 86 24 95.6 24 107.5 C 24 119.4 33.6 129 45.5 129 Z M 45.5 129"/>
<path fill="#a259ff" d="M 24 64.5 C 24 52.6 33.6 43 45.5 43 L 67 43 L 67 86 L 45.5 86 C 33.6 86 24 76.4 24 64.5 Z M 24 64.5"/>
<path fill="#f24e1e" d="M 24 21.5 C 24 9.6 33.6 0 45.5 0 L 67 0 L 67 43 L 45.5 43 C 33.6 43 24 33.4 24 21.5 Z M 24 21.5"/>
<path fill="#ff7262" d="M 67 0 L 88.5 0 C 100.4 0 110 9.6 110 21.5 C 110 33.4 100.4 43 88.5 43 L 67 43 Z M 67 0"/>
<path fill="#1abcfe" d="M 110 64.5 C 110 76.4 100.4 86 88.5 86 C 76.6 86 67 76.4 67 64.5 C 67 52.6 76.6 43 88.5 43 C 100.4 43 110 52.6 110 64.5 Z M 110 64.5"/>
</g>
</svg>
